tools/panel_16/weather-few-clouds.svg

<svg xmlns="http://www.w3.org/2000/svg" width="16" height="16" version="1.1">
 <defs>
  <style id="current-color-scheme" type="text/css">
   .ColorScheme-Text { color:#d3dae3; } .ColorScheme-Highlight { color:#5294e2; }
  </style>
 </defs>
 <g transform="translate(0,-0.004)">
  <path style="fill:currentColor" class="ColorScheme-Text" d="M 7,0.004 6.5,1.0353 C 6.6619,1.022 6.8348,1.004 7,1.004 l 0.5,0 z m 0,2 c -2.7614,0 -5,2.2386 -5,5 0,2.254 1.5126,4.126 3.5625,4.75 C 6.0313,11.076 6.7423,10.549 7.531,10.316 8.151,8.994 9.506,7.978 11,8.004 11.304,7.999 11.587,8.06 11.875,8.129 11.96,7.765 12,7.394 12,7.004 c 0,-2.7614 -2.239,-5 -5,-5 z M 2.0625,2.0665 2.4062,3.129 C 2.6253,2.8698 2.8658,2.6293 3.125,2.4103 Z m 9.8755,0 -1.094,0.375 -0.063,0 c 0.139,0.111 0.275,0.2251 0.407,0.3438 0.131,0.1186 0.257,0.2417 0.375,0.375 z M 1,6.504 l -1,0.5 1.0312,0.5 C 1.0164,7.335 1,7.178 1,7.004 1,6.9765 0.998,6.9204 1,6.8478 1.006,6.7319 1.0224,6.6155 1.0312,6.504 Z m 11.969,0 C 12.984,6.6733 13,6.8304 13,7.004 c 0,0.027 0.002,0.084 0,0.156 -0.006,0.116 -0.022,0.232 -0.031,0.344 l 0.031,0 1,-0.5 z M 11,9.004 C 9.688,9.004 8.595,9.862 8.188,11.035 6.9567,11.191 6,12.231 6,13.504 c 0,1.381 1.119,2.5 2.5,2.5 l 5.5,0 c 1.105,0 2,-0.896 2,-2 0,-1.105 -0.895,-2 -2,-2 0,-1.657 -1.343,-3 -3,-3 z m -8.5625,1.844 -0.375,1.093 1.0937,-0.375 0.0625,0 C 3.0796,11.455 2.9438,11.341 2.8125,11.223 2.6812,11.104 2.5545,10.981 2.4375,10.848 Z"/>
 </g>
</svg>

<svg xmlns="http://www.w3.org/2000/svg" width="16" height="16" version="1.1">
 <defs>
  <style id="current-color-scheme" type="text/css">
   .ColorScheme-Text { color:#d3dae3; } .ColorScheme-Highlight { color:#5294e2; }
  </style>
 </defs>
 <g>
  <path style="fill:currentColor" class="ColorScheme-Text" d="M 7,0.004 6.5,1.0353 C 6.6619,1.022 6.8348,1.004 7,1.004 H 7.5 Z M 7,2.004 C 4.2386,2.004 2,4.2426 2,7.004 2,9.258 3.5126,11.13 5.5625,11.754 6.0313,11.076 6.7423,10.549 7.531,10.316 8.151,8.994 9.506,7.978 11,8.004 11.304,7.999 11.587,8.06 11.875,8.129 11.96,7.765 12,7.394 12,7.004 12,4.2426 9.761,2.004 7,2.004 Z M 2.0625,2.0665 2.4062,3.129 C 2.6253,2.8698 2.8658,2.6293 3.125,2.4103 Z M 11.938,2.0665 10.844,2.4415 H 10.781 C 10.92,2.5525 11.056,2.6666 11.188,2.7853 11.319,2.9039 11.445,3.027 11.563,3.1603 Z M 1,6.504 0,7.004 1.0312,7.504 C 1.0164,7.335 1,7.178 1,7.004 1,6.9765 0.998,6.9204 1,6.8478 1.006,6.7319 1.0224,6.6155 1.0312,6.504 Z M 12.969,6.504 C 12.984,6.6733 13,6.8304 13,7.004 13,7.031 13.002,7.088 13,7.16 12.994,7.276 12.978,7.392 12.969,7.504 H 13 L 14,7.004 Z M 11,9.004 C 9.688,9.004 8.595,9.862 8.188,11.035 6.9567,11.191 6,12.231 6,13.504 6,14.885 7.119,16.004 8.5,16.004 H 14 C 15.105,16.004 16,15.108 16,14.004 16,12.899 15.105,12.004 14,12.004 14,10.347 12.657,9.004 11,9.004 Z M 2.4375,10.848 2.0625,11.941 3.1562,11.566 H 3.2187 C 3.0796,11.455 2.9438,11.341 2.8125,11.223 2.6812,11.104 2.5545,10.981 2.4375,10.848 Z"/>
 </g>
</svg>
